src/icons/svg/iron-man.svg

<?xml version="1.0" encoding="UTF-8"?>
<svg xmlns="http://www.w3.org/2000/svg" xmlns:xlink="http://www.w3.org/1999/xlink" viewBox="0 0 64 64" version="1.1" width="64px" height="64px">
<g id="surface1">
<path style=" fill:#F9DD8F;" d="M 54 25.261719 L 54 36.738281 C 54.007813 37.515625 53.566406 38.222656 52.871094 38.558594 L 52.808594 38.558594 C 52.3125 38.824219 51.949219 39.285156 51.808594 39.828125 L 48.121094 53.539063 C 48.039063 53.839844 47.886719 54.117188 47.679688 54.351563 L 40.601563 62.351563 C 40.21875 62.777344 39.671875 63.023438 39.101563 63.019531 L 24.898438 63.019531 C 24.328125 63.023438 23.78125 62.777344 23.398438 62.351563 L 16.320313 54.351563 C 16.113281 54.117188 15.960938 53.839844 15.878906 53.539063 L 15.371094 51.628906 L 14.109375 46.890625 L 13.261719 43.738281 L 12.261719 39.871094 C 12.261719 39.871094 12.261719 39.871094 12.261719 39.800781 C 12.113281 39.277344 11.75 38.839844 11.261719 38.601563 L 11.199219 38.601563 C 10.460938 38.277344 9.988281 37.546875 10 36.738281 L 10 25.261719 C 9.992188 24.484375 10.433594 23.777344 11.128906 23.441406 C 11.691406 23.152344 12.082031 22.621094 12.191406 22 L 14.078125 12.539063 C 14.667969 9.667969 16.578125 7.246094 19.230469 6 L 20.078125 5.601563 C 27.628906 2.046875 36.371094 2.046875 43.921875 5.601563 L 44.769531 6 C 47.429688 7.253906 49.339844 9.6875 49.921875 12.570313 L 50.671875 16.320313 L 51.339844 19.648438 L 51.808594 22 C 51.929688 22.605469 52.320313 23.121094 52.871094 23.398438 C 53.582031 23.742188 54.023438 24.472656 54 25.261719 Z "/>
<path style=" fill:#F9E3AE;" d="M 14.050781 15.890625 L 16.351563 30.160156 C 16.351563 30.160156 24.179688 33.070313 27 33 C 29.820313 32.929688 41.78125 34.359375 48.289063 29.28125 L 50.359375 14.558594 L 43.300781 8 L 21.640625 7.511719 Z "/>
<path style=" fill:#ED7899;" d="M 50.359375 14.53125 C 50.359375 14.53125 44.941406 12.058594 41.511719 10.78125 C 39.941406 10.191406 38.789063 9.851563 38.761719 10.109375 C 38.730469 10.371094 38.640625 11.941406 38.410156 13.878906 C 38 17.699219 37 23 35 23 C 33 23 30.679688 23 29.25 23 L 28 23 C 28 23 27.589844 23.699219 26.828125 19.421875 C 26.828125 19.421875 26.828125 19.421875 26.828125 19.359375 C 26.628906 18.238281 26.441406 17.089844 26.28125 15.988281 C 26.011719 14.28125 25.800781 12.699219 25.648438 11.621094 C 25.53125 10.710938 25.460938 10.148438 25.460938 10.148438 L 23.148438 10.21875 L 13.589844 15 L 13.851563 13.589844 C 13.851563 13.589844 14.089844 4 32 3 C 32.839844 2.945313 33.640625 2.925781 34.398438 2.941406 C 35.941406 2.929688 37.480469 3.058594 39 3.320313 C 40.070313 3.511719 41.117188 3.800781 42.128906 4.191406 C 43.519531 4.695313 44.816406 5.421875 45.96875 6.351563 C 48.472656 8.378906 50.054688 11.324219 50.359375 14.53125 Z "/>
<path style=" fill:#ED7899;" d="M 12.230469 39.871094 L 19.960938 48.71875 L 20.289063 53.050781 L 22.101563 54.339844 L 25.320313 50.910156 L 38.878906 51.039063 L 41.898438 54.71875 L 44.109375 52.71875 L 44.429688 47.558594 L 51.769531 39.871094 L 49.078125 49.558594 L 48.289063 54.140625 L 39.53125 63 L 23.96875 63 L 16 53.851563 Z "/>
<path style=" fill:#E0678F;" d="M 40 63 L 24 63 L 24 60 C 24 58.894531 24.894531 58 26 58 L 38 58 C 39.105469 58 40 58.894531 40 60 Z "/>
<path style=" fill:#C5E4FA;" d="M 47 31 L 48 32.429688 C 48.589844 33.3125 48.386719 34.5 47.539063 35.140625 L 46.070313 36.199219 C 45.378906 36.71875 44.535156 37 43.671875 37 L 38.238281 37 C 37.480469 37 36.789063 36.570313 36.449219 35.890625 L 35 33 "/>
<path style=" fill:#C5E4FA;" d="M 16.289063 31 L 15.289063 32.429688 C 14.699219 33.3125 14.902344 34.5 15.75 35.140625 L 17.171875 36.199219 C 17.863281 36.71875 18.703125 37 19.570313 37 L 25 37 C 25.757813 37 26.453125 36.570313 26.789063 35.890625 L 28.289063 33 "/>
<path style=" fill:#8D6C9F;" d="M 53.320313 22.539063 C 53.042969 22.402344 52.847656 22.140625 52.789063 21.839844 L 50.898438 12.378906 C 50.253906 9.191406 48.144531 6.492188 45.199219 5.101563 L 44.351563 4.699219 C 36.53125 1.003906 27.46875 1.003906 19.648438 4.699219 L 18.800781 5.101563 C 15.855469 6.492188 13.746094 9.191406 13.101563 12.378906 L 11.210938 21.839844 C 11.152344 22.140625 10.957031 22.402344 10.679688 22.539063 C 9.644531 23.046875 8.988281 24.105469 9 25.261719 L 9 36.738281 C 8.992188 37.921875 9.675781 38.996094 10.75 39.488281 C 11.007813 39.617188 11.195313 39.851563 11.269531 40.128906 L 14.910156 53.800781 C 15.035156 54.246094 15.261719 54.65625 15.570313 55 L 22.660156 63 C 23.230469 63.636719 24.046875 64 24.898438 64 L 39.101563 64 C 39.953125 64 40.769531 63.636719 41.339844 63 L 48.429688 55 C 48.742188 54.652344 48.96875 54.234375 49.089844 53.78125 L 52.738281 40.109375 C 52.820313 39.804688 53.039063 39.558594 53.328125 39.441406 C 54.355469 38.933594 55.003906 37.886719 55 36.738281 L 55 25.261719 C 55.011719 24.105469 54.355469 23.046875 53.320313 22.539063 Z M 46.480469 32 L 47.121094 33 C 47.410156 33.441406 47.3125 34.03125 46.890625 34.351563 L 45.46875 35.398438 C 44.949219 35.789063 44.320313 36 43.671875 36 L 38.238281 36 C 37.863281 36 37.519531 35.785156 37.351563 35.449219 L 36.511719 33.769531 C 39.878906 33.488281 43.21875 32.894531 46.480469 32 Z M 46.589844 29.550781 C 46.550781 29.773438 46.390625 29.957031 46.171875 30.019531 C 36.90625 32.589844 27.117188 32.589844 17.851563 30.019531 C 17.632813 29.960938 17.472656 29.78125 17.429688 29.558594 L 15.210938 16 C 16.179688 14.792969 17.40625 13.820313 18.800781 13.148438 C 20.679688 12.234375 22.644531 11.515625 24.671875 11 L 25.808594 21.28125 C 25.980469 22.808594 27.273438 23.960938 28.808594 23.949219 L 35.230469 23.949219 C 36.765625 23.960938 38.0625 22.808594 38.230469 21.28125 L 39.320313 11 C 41.339844 11.492188 43.308594 12.183594 45.191406 13.070313 C 46.585938 13.734375 47.816406 14.699219 48.789063 15.898438 Z M 16.171875 33 L 17 31.808594 C 17.117188 31.871094 17.234375 31.925781 17.359375 31.96875 C 20.472656 32.832031 23.65625 33.417969 26.871094 33.71875 L 26 35.449219 C 25.832031 35.785156 25.488281 36 25.109375 36 L 19.621094 36 C 18.972656 36 18.339844 35.789063 17.820313 35.398438 L 16.398438 34.328125 C 15.992188 34.011719 15.890625 33.4375 16.171875 33 Z M 19.648438 6.921875 L 20.5 6.519531 C 27.78125 3.078125 36.21875 3.078125 43.5 6.519531 L 44.351563 6.921875 C 46.71875 8.039063 48.421875 10.210938 48.941406 12.78125 L 49.050781 13.328125 C 48.152344 12.519531 47.144531 11.84375 46.050781 11.328125 C 44.046875 10.386719 41.953125 9.652344 39.800781 9.128906 C 39.246094 9 38.664063 9.113281 38.199219 9.441406 C 37.722656 9.769531 37.414063 10.292969 37.351563 10.871094 L 36.199219 21.109375 C 36.144531 21.617188 35.710938 22.003906 35.199219 22 L 28.789063 22 C 28.277344 22.003906 27.847656 21.617188 27.789063 21.109375 L 26.660156 10.828125 C 26.597656 10.253906 26.289063 9.730469 25.808594 9.398438 C 25.34375 9.074219 24.761719 8.960938 24.210938 9.089844 C 22.050781 9.613281 19.953125 10.347656 17.941406 11.289063 C 16.847656 11.804688 15.835938 12.480469 14.941406 13.289063 L 15.050781 12.738281 C 15.582031 10.183594 17.285156 8.027344 19.648438 6.921875 Z M 47.148438 53.289063 C 47.109375 53.441406 47.035156 53.582031 46.929688 53.699219 L 39.839844 61.699219 C 39.652344 61.914063 39.378906 62.039063 39.089844 62.039063 L 24.898438 62.039063 C 24.613281 62.039063 24.339844 61.914063 24.148438 61.699219 L 17.058594 53.699219 C 16.957031 53.582031 16.878906 53.441406 16.839844 53.289063 L 14.050781 42.808594 L 18.238281 47.519531 C 18.730469 48.070313 19 48.78125 19 49.519531 L 19 52.171875 C 19 52.964844 19.316406 53.726563 19.878906 54.289063 L 20.480469 54.890625 C 20.890625 55.296875 21.453125 55.503906 22.027344 55.464844 C 22.601563 55.425781 23.132813 55.136719 23.480469 54.679688 L 25.199219 52.398438 C 25.390625 52.148438 25.683594 52 26 52 L 38 52 C 38.316406 52 38.609375 52.148438 38.800781 52.398438 L 40.511719 54.679688 C 40.859375 55.140625 41.390625 55.429688 41.96875 55.46875 L 42.109375 55.46875 C 42.640625 55.46875 43.148438 55.253906 43.519531 54.878906 L 44.121094 54.28125 C 44.679688 53.71875 44.996094 52.960938 45 52.171875 L 45 49.519531 C 45 48.78125 45.269531 48.070313 45.761719 47.519531 L 49.949219 42.808594 Z M 53 36.738281 C 53.011719 37.171875 52.757813 37.570313 52.359375 37.738281 C 51.96875 37.910156 51.597656 38.121094 51.25 38.371094 L 44.25 46.230469 C 43.449219 47.140625 43.003906 48.308594 43 49.519531 L 43 52.171875 C 43 52.4375 42.898438 52.691406 42.710938 52.878906 L 42.109375 53.480469 L 40.398438 51.199219 C 39.832031 50.445313 38.945313 50 38 50 L 26 50 C 25.054688 50 24.167969 50.445313 23.601563 51.199219 L 21.890625 53.480469 L 21.289063 52.878906 C 21.101563 52.691406 21 52.4375 21 52.171875 L 21 49.519531 C 21 48.296875 20.550781 47.113281 19.738281 46.199219 L 12.738281 38.339844 C 12.371094 38.078125 11.976563 37.851563 11.558594 37.671875 C 11.203125 37.5 10.980469 37.136719 10.988281 36.738281 L 10.988281 25.261719 C 10.980469 24.863281 11.203125 24.5 11.558594 24.328125 C 12.386719 23.917969 12.976563 23.144531 13.160156 22.238281 L 13.730469 19.398438 L 15.441406 29.910156 C 15.472656 30.050781 15.515625 30.1875 15.570313 30.320313 C 15.527344 30.355469 15.488281 30.398438 15.449219 30.441406 L 14.449219 31.871094 C 13.570313 33.195313 13.878906 34.976563 15.148438 35.929688 L 16.621094 37 C 17.484375 37.648438 18.539063 38 19.621094 38 L 25.050781 38 C 26.183594 38 27.222656 37.355469 27.730469 36.339844 L 29 33.871094 C 30 33.929688 31 33.960938 32 33.960938 C 32.78125 33.960938 33.558594 33.960938 34.339844 33.898438 L 35.558594 36.328125 C 36.0625 37.351563 37.101563 37.996094 38.238281 38 L 43.671875 38 C 44.75 38 45.804688 37.648438 46.671875 37 L 48.089844 35.941406 C 49.363281 34.984375 49.667969 33.203125 48.789063 31.878906 L 48.140625 30.878906 C 48.351563 30.582031 48.5 30.238281 48.570313 29.878906 L 50.269531 19.378906 L 50.839844 22.21875 C 51.023438 23.125 51.613281 23.898438 52.441406 24.308594 C 52.796875 24.480469 53.019531 24.84375 53.011719 25.238281 Z "/>
<path style=" fill:#8D6C9F;" d="M 31 19 L 33 19 C 33.550781 19 34 18.550781 34 18 C 34 17.449219 33.550781 17 33 17 L 31 17 C 30.449219 17 30 17.449219 30 18 C 30 18.550781 30.449219 19 31 19 Z "/>
<path style=" fill:#8D6C9F;" d="M 31 14 L 33 14 C 33.550781 14 34 13.550781 34 13 C 34 12.449219 33.550781 12 33 12 L 31 12 C 30.449219 12 30 12.449219 30 13 C 30 13.550781 30.449219 14 31 14 Z "/>
<path style=" fill:#8D6C9F;" d="M 31 9 L 33 9 C 33.550781 9 34 8.550781 34 8 C 34 7.449219 33.550781 7 33 7 L 31 7 C 30.449219 7 30 7.449219 30 8 C 30 8.550781 30.449219 9 31 9 Z "/>
<path style=" fill:#8D6C9F;" d="M 32 56 C 31.449219 56 31 56.449219 31 57 L 31 59 C 31 59.550781 31.449219 60 32 60 C 32.550781 60 33 59.550781 33 59 L 33 57 C 33 56.449219 32.550781 56 32 56 Z "/>
<path style=" fill:#8D6C9F;" d="M 37 56 C 36.449219 56 36 56.449219 36 57 L 36 59 C 36 59.550781 36.449219 60 37 60 C 37.550781 60 38 59.550781 38 59 L 38 57 C 38 56.449219 37.550781 56 37 56 Z "/>
<path style=" fill:#8D6C9F;" d="M 27 56 C 26.449219 56 26 56.449219 26 57 L 26 59 C 26 59.550781 26.449219 60 27 60 C 27.550781 60 28 59.550781 28 59 L 28 57 C 28 56.449219 27.550781 56 27 56 Z "/>
</g>
</svg>

<svg xmlns="http://www.w3.org/2000/svg" width="64" height="64"><path d="M54 25.262v11.476a1.998 1.998 0 0 1-1.129 1.82h-.062c-.496.266-.86.727-1 1.27L48.12 53.54a2.04 2.04 0 0 1-.441.813l-7.078 8c-.383.425-.93.671-1.5.668H24.898a2.005 2.005 0 0 1-1.5-.668l-7.078-8a2.04 2.04 0 0 1-.441-.813l-.508-1.91-1.262-4.738-.847-3.153-1-3.867v-.07a1.915 1.915 0 0 0-1-1.2h-.063A2 2 0 0 1 10 36.739V25.262a1.998 1.998 0 0 1 1.129-1.82c.562-.29.953-.82 1.062-1.442l1.887-9.46A9.29 9.29 0 0 1 19.23 6l.848-.398a27.99 27.99 0 0 1 23.844 0L44.77 6a9.296 9.296 0 0 1 5.152 6.57l.75 3.75.668 3.328.469 2.352a2.003 2.003 0 0 0 1.062 1.398A2.003 2.003 0 0 1 54 25.262z"/><path d="M14.05 15.89l2.302 14.27S24.18 33.07 27 33c2.82-.07 14.781 1.36 21.29-3.719l2.07-14.722L43.3 8l-21.66-.488z"/><path d="M50.36 14.531s-5.419-2.472-8.848-3.75c-1.57-.59-2.723-.93-2.75-.672-.032.262-.121 1.832-.352 3.77C38 17.699 37 23 35 23h-7s-.41.7-1.172-3.578v-.063c-.2-1.12-.387-2.27-.547-3.37-.27-1.708-.48-3.29-.633-4.368-.117-.91-.187-1.473-.187-1.473l-2.313.07L13.59 15l.262-1.41S14.09 4 32 3a28.09 28.09 0 0 1 2.398-.059 25.944 25.944 0 0 1 4.602.38c1.07.19 2.117.48 3.129.87 1.39.504 2.687 1.23 3.84 2.16a11.98 11.98 0 0 1 4.39 8.18zM12.23 39.871l7.73 8.848.33 4.332 1.812 1.289 3.218-3.43 13.559.13 3.02 3.679 2.21-2 .32-5.16 7.34-7.688-2.69 9.688-.79 4.582L39.531 63H23.97L16 53.852z"/><path d="M40 63H24v-3c0-1.105.895-2 2-2h12c1.105 0 2 .895 2 2z"/><path d="M47 31l1 1.43c.59.883.387 2.07-.46 2.71l-1.47 1.06c-.691.519-1.535.8-2.398.8h-5.434a2 2 0 0 1-1.789-1.11L35 33M16.29 31l-1 1.43c-.59.883-.388 2.07.46 2.71l1.422 1.06c.691.519 1.531.8 2.398.8H25c.758 0 1.453-.43 1.79-1.11l1.5-2.89"/><path d="M53.32 22.54a.991.991 0 0 1-.53-.7l-1.892-9.461A10.303 10.303 0 0 0 45.2 5.102l-.847-.403a28.91 28.91 0 0 0-24.704 0l-.847.403a10.303 10.303 0 0 0-5.7 7.277l-1.89 9.46a.991.991 0 0 1-.531.7A3.001 3.001 0 0 0 9 25.262v11.476a2.999 2.999 0 0 0 1.75 2.75c.258.13.445.364.52.64l3.64 13.673c.125.445.352.855.66 1.199l7.09 8c.57.637 1.387 1 2.238 1h14.204c.851 0 1.668-.363 2.238-1l7.09-8c.312-.348.539-.766.66-1.219l3.648-13.672a1 1 0 0 1 .59-.668A3.001 3.001 0 0 0 55 36.738V25.262a3.001 3.001 0 0 0-1.68-2.723zM46.48 32l.641 1c.29.441.191 1.031-.23 1.352l-1.422 1.046c-.52.391-1.149.602-1.797.602h-5.434a.994.994 0 0 1-.886-.55l-.84-1.68A55.027 55.027 0 0 0 46.48 32zm.11-2.45a.591.591 0 0 1-.418.47 52.97 52.97 0 0 1-28.32 0 .586.586 0 0 1-.422-.461L15.21 16a10.373 10.373 0 0 1 3.59-2.852A30.722 30.722 0 0 1 24.673 11l1.137 10.281a2.999 2.999 0 0 0 3 2.668h6.421a2.996 2.996 0 0 0 3-2.668L39.32 11a31.018 31.018 0 0 1 5.871 2.07 10.371 10.371 0 0 1 3.598 2.828zM16.172 33L17 31.809c.117.062.234.117.36.16a54.654 54.654 0 0 0 9.511 1.75L26 35.449a.996.996 0 0 1-.89.551H19.62c-.648 0-1.281-.21-1.8-.602l-1.423-1.07A.998.998 0 0 1 16.172 33zm3.476-26.078l.852-.402a26.91 26.91 0 0 1 23 0l.852.402a8.297 8.297 0 0 1 4.59 5.86l.109.546a12.373 12.373 0 0 0-3-2 33.074 33.074 0 0 0-6.25-2.2 1.993 1.993 0 0 0-1.602.313 1.995 1.995 0 0 0-.847 1.43L36.199 21.11a1 1 0 0 1-1 .891h-6.41a1.003 1.003 0 0 1-1-.89L26.66 10.827a2.002 2.002 0 0 0-.851-1.43 2 2 0 0 0-1.598-.308 33.258 33.258 0 0 0-6.27 2.2 12.298 12.298 0 0 0-3 2l.11-.552a8.282 8.282 0 0 1 4.597-5.816zm27.5 46.367a.973.973 0 0 1-.218.41l-7.09 8a.996.996 0 0 1-.75.34H24.898c-.285 0-.558-.125-.75-.34l-7.09-8a1.018 1.018 0 0 1-.218-.41l-2.79-10.48 4.188 4.71c.492.551.762 1.262.762 2v2.653c0 .793.316 1.555.879 2.117l.601.602a2.001 2.001 0 0 0 3-.211l1.72-2.282c.19-.25.484-.398.8-.398h12c.316 0 .61.148.8.398l1.712 2.282c.347.46.879.75 1.457.789h.14c.532 0 1.04-.215 1.41-.59l.602-.598c.559-.562.875-1.32.879-2.11V49.52c0-.739.27-1.45.762-2l4.187-4.711zM53 36.74c.012.433-.242.831-.64 1-.391.171-.762.382-1.11.632l-7 7.86A5.005 5.005 0 0 0 43 49.52v2.652c0 .266-.102.52-.29.707l-.6.601-1.712-2.28A2.999 2.999 0 0 0 38 50H26c-.945 0-1.832.445-2.398 1.2l-1.711 2.28-.602-.601a.996.996 0 0 1-.289-.707V49.52c0-1.223-.45-2.407-1.262-3.32l-7-7.86a6.373 6.373 0 0 0-1.18-.668 1.012 1.012 0 0 1-.57-.934V25.262a1.012 1.012 0 0 1 .57-.934 2.994 2.994 0 0 0 1.602-2.09l.57-2.84 1.711 10.512c.032.14.075.277.13.41a1.181 1.181 0 0 0-.122.121l-1 1.43a3.002 3.002 0 0 0 .7 4.059L16.62 37a5 5 0 0 0 3 1h5.43a3.001 3.001 0 0 0 2.68-1.66L29 33.87c1 .059 2 .09 3 .09.781 0 1.559 0 2.34-.063l1.219 2.43A2.996 2.996 0 0 0 38.239 38h5.433a5.016 5.016 0 0 0 3-1l1.418-1.059a3.004 3.004 0 0 0 .7-4.062l-.65-1c.212-.297.36-.64.43-1l1.7-10.5.57 2.84c.183.906.773 1.68 1.601 2.09.356.171.579.535.57.93z"/><path d="M31 19h2c.55 0 1-.45 1-1s-.45-1-1-1h-2c-.55 0-1 .45-1 1s.45 1 1 1zM31 14h2c.55 0 1-.45 1-1s-.45-1-1-1h-2c-.55 0-1 .45-1 1s.45 1 1 1zM31 9h2c.55 0 1-.45 1-1s-.45-1-1-1h-2c-.55 0-1 .45-1 1s.45 1 1 1zM32 56c-.55 0-1 .45-1 1v2c0 .55.45 1 1 1s1-.45 1-1v-2c0-.55-.45-1-1-1zM37 56c-.55 0-1 .45-1 1v2c0 .55.45 1 1 1s1-.45 1-1v-2c0-.55-.45-1-1-1zM27 56c-.55 0-1 .45-1 1v2c0 .55.45 1 1 1s1-.45 1-1v-2c0-.55-.45-1-1-1z"/></svg>
